X: 26
T:Cuckoo's Nest
M:4/4
L:1/8
Q:90
R:Reel
K:D
(3ABc|:"D"d2d2 dfed|"A7"c2A2 A2A-B|"C"=c2c2 cedc|"G"B-dAF G2FG|!
"D"A-FDFA-dfa|f-dAF "G"G2FG|
"D"A-GFD "A7"E-FGE|[1"D"F2D2 D2(3ABc:|[2"D"F2D2 D2F-G||!
"D"A-FDF A2AB|A-GFE D2((3DEF|"C"G)E=CE GECE|
GFED =C2F-G|"D"A-FDF A-dfa|!
f-dAF "G"G2FG|"D"A-GFD "A"E-FGE|[1"D"F2D2 D2F
-G:|[2"D"F2D2 D (ABc|]
